!!!!SEGMENT: 028-1-BH-022.krn
!!!COM: Chopin, Fryderyk
!!!OTL: No. 22
!!!OPS: Op. 28
!!!PTL: Vingt - quatre | PRÉLUDES | pour le Piano
!!!PPR: Breitkopf & Härtel
!!!PPP: Leipzig
!!!AGN: Prelude
!!!NIFC-rismID: 1001013151
!!!NIFC-shelfmark: PL-Wbfc 4372/n
!!!OMD: Molto agitato.
**kern	**kern	**dynam
*part1	*part1	*part1
*staff2	*staff1	*S
*clefF4	*clefG2	*
*I"N|o. 22.	*	*
*k[b-e-]	*k[b-e-]	*
*g:	*g:	*
*M6/8	*M6/8	*
*MM198	*MM198	*
=1	=1	=1
!	!	!LO:DY:rj
(<8BB-L 8BBB-	4r	f
8.AA 8.AAA	.	.
.	8r	.
16GGJk 16GGG	.	.
=2	=2	=2
*	*^	*
[>4.GG [<4.GGG)	8r	8ryy	.
!	!	!LO:TX:t=P:problem:mixed beam	!
.	(>4e-	8c\L 8A\	.
.	.	8E-</J	>
!	!LO:S:s=1:note:problem:note-level slur	!	!
8GG\L] 8GGG\]	4d) 4c 4A< 4D<	4.ryy	.
(>8FF#X 8FFF#X	.	.	.
.	.	.	]
8AAJ 8AAA	8r	.	.
=3	=3	=3	=3
[>4.AA\ [<4.AAA\)	8r	8ryy	.
!	!	!LO:TX:t=P:problem:mixed beam	!
!	!LO:S:s=1:note:problem:note-level slur	!	!
.	(>4f#X [<4e-	8c\L	>
.	.	8F#<X/J	.
!	!LO:S:s=1:note:problem:note-level slur	!	!
8AAL] 8AAA]	4g) 4e-] 4G<	4.ryy	.
.	.	.	]
(>8BB-\ 8BBB-\	.	.	.
8GGJ 8GGG	8r	.	.
=4	=4	=4	=4
[>4.BB-\ [<4.BBB-\)	8r	8ryy	.
!	!	!LO:TX:t=P:problem:mixed beam	!
.	(>4g	8e-\L 8c\	.
.	.	.	>
.	.	8G</J	.
!	!LO:S:s=1:note:problem:note-level slur	!	!
!	!LO:TX:t=P:w źródle krzyżyk na wysokości 4e zamiast 4f:problem	!	!
8BB-L] 8BBB-]	4f#) 4e- 4c 4F#<X	4.ryy	.
(>8AA\ 8AAA\	.	.	]
8CJ 8CC	8r	.	.
=5	=5	=5	=5
[>4.C\ [<4.CC\)	8r	8ryy	.
!	!	!LO:TX:t=P:problem:mixed beam	!
.	(>4a 4f#X	8e-\L	.
.	.	8A</J	>
!	!LO:S:s=1:note:problem:note-level slur	!	!
8CL] 8CC]	4b-) 4g 4B-<	4.ryy	.
(>8D\ 8DD\	.	.	]
8BB-J 8BBB-	8r	.	.
=6	=6	=6	=6
!LO:N:vis=4	!	!	!
(>[>4.c#X [<4.C#X)	8r	8ryy	>
.	(>4gg 4ee-	8b-L	.
.	.	8gJ	]
8c#L] 8C#]	4ff#X\ 4dd\	4a\ 4f#X\)	.
8d 8D	.	.	.
8AJ 8AA)	8r	8ryy	.
!!LO:LB:g=original
=7	=7	=7	=7
(>[>4.Bn [<4.BBn	8r	8ryy	>
.	(>4ff 4dd-X	8a-XL	.
.	.	8fJ	.
!	!LO:S:s=1:note:problem:note-level slur	!	!
8BL] 8BB]	4een/) 4cc/ 4g/ 4en/	4.ryy	.
8c 8C	.	.	]
8GJ 8GG)	8r	.	.
=8	=8	=8	=8
(>[>4.Bn [<4.BBn	8r	8ryy	>
.	4ff	8dd-XL 8a-X	.
.	.	8fJ	.
8BL] 8BB]	4een/ 4cc/ 4g/ 4en/	4.ryy	.
8c 8C	.	.	]
8GJ 8GG)	8r	.	.
*	*v	*v	*
=9	=9	=9
(>8GL 8GG	8r	.
!	!LO:N:vis=4	!
8F#X\ 8FF#X\	8ee-X^</ 8cc^</ 8a^</ 8e-X^</	.
8GJ 8GG	8r	.
8B-X\L 8BB-X\	4r	.
8A 8AA)	.	.
16r	8r	.
(>16GJk 16GG	.	.
=10	=10	=10
*	*^	*
[>4.G/ [<4.GG/	8r	8ryy	.
.	.	.	>
.	(>4ee-/	[[>8ccL [[<8a	.
.	.	8e-J	.
!	!	!LO:S:s=1:note:problem:note-level slur	!
8G/L] 8GG/]	4.ryy	4dd) 4cc]] 4a]] 4d	.
8F#X 8FF#X	.	.	.
8AJ 8AA	.	8r	]
=11	=11	=11	=11
(>[4.A [4.AA)	8r	8ryy	.
.	(>4ff#X	[[>8ee-L 8cc	>
.	.	8f#XJ	.
8AL] 8AA]	4.ryy	4gg 4ee-]] 4g)	]
8B- 8BB-	.	.	.
8GJ 8GG	.	8r	.
=12	=12	=12	=12
[>4.B- [<4.BB-)	8ryy	8r	.
.	.	.	>
.	(>4gg	[[>8ee-L [[>8cc	.
.	.	8gJ	.
.	.	.	]
!	!	!LO:S:s=1:note:problem:note-level slur	!
(>8B-L] 8BB-]	4.ryy	4ff#X) 4ee-]] 4cc]] 4f#X	.
8A 8AA	.	.	.
8cJ 8C	.	8r	.
=13	=13	=13	=13
[4.c [4.C)	8r	8ryy	.
.	(>4aa 4ff#X	8ee-\L	>
.	.	8a\J	.
.	.	.	]
(>8cL] 8C]	4.ryy	4bb-\ 4gg\ 4b-\)	.
8d 8D	.	.	.
8B-J 8BB-)	.	8r	.
!!LO:LB:g=original
=14	=14	=14	=14
*Xtuplet	*	*	*
(8gL 8G	8r	8ryy	.
8e- 8E-	4bb-^>	(>8ggL	.
8dJ 8D	.	8b-J)	.
4d 4D^<	8r	8ryy	.
.	4aa^>	(>8ggL 8ee	.
8c#X 8C#X)	.	8aJ)	.
=15	=15	=15	=15
(>8fL 8F	8r	8ryy	.
8d-X 8D-X	(>4aa-X^>	8ffL	.
8cnJ 8Cn	.	8a-J)	.
4c 4C^<	8r	8ryy	.
.	4gg^>	(>8ffL 8dd	.
8Bn 8BBn)	.	8gJ)	.
=16	=16	=16	=16
(>8e-L 8E-	8r	8ryy	<
8c 8C	4ee-^>	(>8ccL 8g	.
8B-XJ 8BB-X	.	8e-J)	.
8AL 8AA	8r	8ryy	.
8c 8C	4ee-^>	(>8ccL 8g-X	.
8A-XJ 8AA-X)	.	8e-J)	.
*	*v	*v	*
=17	=17	=17
8GL 8GG	8ee-'</L 8cc/ 8g/ 8e-/	<
8G-X 8GG-X	8ee-'<J 8cc 8a-X 8e-	.
*	*	*below
8FJ 8FF	8r	.
8EnL 8EEn	4r	.
8E-X 8EE-X	.	.
8DJ 8DD	8r	.
.	.	[
=18	=18	=18
*	*^	*
*ped	*	*	*
8D-XL 8DD-X	8r	8ryy	ff
!	!	!LO:TX:t=P:problem:diminuendolike accent	!
8d-X 8D-	4ff	8dd-XL 8a-X^	.
*Xped	*	*	*
8d-J 8D-	.	8fJ	.
*ped	*	*	*
8d-L 8D-	8r	8ryy	[
8d- 8D-	4gg	(>8ee- 8b-L	.
*Xped	*	*	*
8d-J 8D-	.	8gJ)	.
=19	=19	=19	=19
8c\L 8C\	8r	8ryy	.
!	!	!LO:TX:t=P:problem:diminuendolike accent	!
8B- 8BB-	(>4aa-X	(>8ee- 8cc^L	.
8A-XJ 8AA-X	.	8a-XJ)	.
8G/L 8GG/	8r	8ryy	.
!	!	!LO:TX:t=P:problem:diminuendolike accent	!
8F 8FF	4ee-	(>8cc 8a-^L	.
8E-J 8EE-	.	8e-J)	.
=20	=20	=20	=20
*ped	*	*	*
8D-XL 8DD-X	8r	8ryy	.
!	!	!LO:TX:t=P:problem:diminuendolike accent	!
8d-X 8D-	(>4ff	8dd-XL 8a^	.
*Xped	*	*	*
8d-J 8D-	.	8fJ)	.
*ped	*	*	*
8d-L 8D-	8r	8ryy	.
!	!	!LO:TX:t=P:problem:diminuendolike accent	!
8d- 8D-	(>4gg 4ee-	8b-^L	.
*Xped	*	*	*
8d-J 8D-	.	8gJ)	.
!!LO:LB:g=original
=21	=21	=21	=21
8c\L 8C\	8r	8ryy	.
!	!	!LO:TX:t=P:problem:diminuendolike accent	!
8B- 8BB-	(>4aa-y	8ee-L 8cc^	.
8A-XJ 8AA-X	.	8a-XJ)	.
8G/L 8GG/	8r	8ryy	.
!	!	!LO:TX:t=P:problem:diminuendolike accent	!
8F 8FF	(>4gg	8ee-L 8cc^	.
8E-J 8EE-	.	8e-J)	.
=22	=22	=22	=22
*ped	*	*	*
8DnL 8DDn	8r	8ryy	.
!	!	!LO:TX:t=P:problem:diminuendolike accent	!
8c 8C	(>4ff	8ddL 8a-X^	.
*Xped	*	*	*
8cJ 8C	.	8fJ)	.
*ped	*	*	*
8cL 8C	8r	8ryy	.
!	!	!LO:TX:t=P:problem:diminuendolike accent	!
8c 8C	(>4ff#X	8ddnL 8an^	.
*Xped	*	*	*
8cJ 8C	.	8f#XJ)	.
=23	=23	=23	=23
8B-L 8BB-	8r	8ryy	.
!	!	!LO:TX:t=P:problem:diminuendolike accent	!
8A 8AA	(>4gg	8ddL 8b-^	.
8GJ 8GG	.	8gJ)	.
8E-L 8EE-	8r	8ryy	f
!	!	!LO:TX:t=P:problem:diminuendolike accent	!
8D 8DD	(>4cc	8aL 8g^	.
8CJ 8CC	.	8cJ)	.
=24	=24	=24	=24
*ped	*	*	*
4BB- 4BBB-	8r	8ryy	.
!	!	!LO:TX:t=P:problem:diminuendolike accent	!
.	(>4dd	8b-L 8g^	.
*Xped	*	*	*
8r	.	8dJ)	.
*ped	*	*	*
4E-/ 4EE-/	8r	8ryy	.
!	!	!LO:TX:t=P:problem:mixed beam	!
.	(>4g	8e-\L 8B-^\	.
*Xped	*	*	*
8rBB	.	8G</J)	.
=25	=25	=25	=25
*ped	*	*	*
4AA 4AAA	8r	8ryy	.
!	!	!LO:TX:t=P:problem:diminuendolike accent	!
.	(>4cc	8gL 8e-^	.
*Xped	*	*	*
8r	.	8cJ)	.
*ped	*	*	*
4D 4DD	8r	4.ryy	.
!	!LO:TX:t=P:problem:diminuendolike accent	!	!
.	(<8b-^<L 8f#X	.	.
*Xped	*	*	*
8r	8aJ 8c)	.	.
=26	=26	=26	=26
*ped	*	*	*
8D-XL 8DD-X	8r	8ryy	ff
!	!	!LO:TX:t=P:problem:diminuendolike accent	!
8d-X 8D-	4ff	(>8dd-XL 8a-X^	.
*Xped	*	*	*
8d-J 8D-	.	8fJ)	.
*ped	*	*	*
8d-L 8D-	8r	8ryy	.
!	!	!LO:TX:t=P:problem:diminuendolike accent	!
8d- 8D-	4gg	(>8ee-L 8b-^	.
*Xped	*	*	*
8d-J 8D-	.	8gJ)	.
=27	=27	=27	=27
8cL 8C	8r	8ryy	.
!	!	!LO:TX:t=P:problem:diminuendolike accent	!
8B- 8BB-	(>4aa-X	8ee-L 8cc^	.
8A-XJ 8AA-X	.	8a-XJ)	.
8GL 8GG	8r	8ryy	.
!	!	!LO:TX:t=P:problem:diminuendolike accent	!
8F 8FF	(>4ee-	8cc 8a-^L	.
8E-J 8EE-	.	8e-J)	.
!!LO:LB:g=original
=28	=28	=28	=28
*ped	*	*	*
8D-XL 8DD-X	8r	8ryy	.
!	!	!LO:TX:t=P:problem:diminuendolike accent	!
8d-X 8D-	(>4ff	8dd-XL 8a^	.
*Xped	*	*	*
8d-J 8D-	.	8fJ)	.
*ped	*	*	*
8d-L 8D-	8r	8ryy	.
!	!	!LO:TX:t=P:problem:diminuendolike accent	!
8d- 8D-	(>4gg	8ee-L 8b-^	.
*Xped	*	*	*
8d-J 8D-	.	8gJ)	.
=29	=29	=29	=29
8cL 8C	8r	8ryy	.
!	!	!LO:TX:t=P:problem:diminuendolike accent	!
8B- 8BB-	(>4aa-X	8ee-L 8cc^	.
8A-XJ 8AA-X	.	8a-XJ)	.
8GL 8GG	8r	8ryy	.
!	!	!LO:TX:t=P:problem:diminuendolike accent	!
8F 8FF	(>4gg	8ee-L 8cc^	.
8E-J 8EE-	.	8gJ)	.
=30	=30	=30	=30
8DnL 8DDn	8r	8ryy	.
!	!	!LO:TX:t=P:problem:diminuendolike accent	!
8c 8C	(>4ff	8ddL 8a-X^	.
8cJ 8C	.	8fJ)	.
8cL 8C	8r	8ryy	.
!	!	!LO:TX:t=P:problem:diminuendolike accent	!
8c 8C	(>4ff#X	8ddnL 8an^	.
8cJ 8C	.	8f#J)	.
=31	=31	=31	=31
8B-L 8BB-	8r	8ryy	.
!	!	!LO:TX:t=P:problem:diminuendolike accent	!
8A 8AA	(>4gg	8ddL 8b-^	.
8GJ 8GG	.	8gJ)	.
8E-L 8EE-	8r	8ryy	f
!	!	!LO:TX:t=P:problem:diminuendolike accent	!
8D 8DD	(>4cc	8aL 8g^	.
8CJ 8CC	.	8cJ)	.
=32	=32	=32	=32
*ped	*	*	*
4BB-/ 4BBB-/	8r	8ryy	.
!	!	!LO:TX:t=P:problem:diminuendolike accent	!
.	(>4dd	8b-L 8g^	.
*Xped	*	*	*
8r	.	8dJ)	.
*ped	*	*	*
4E-/ 4EE-/	8r	8ryy	.
!	!	!LO:TX:t=P:problem:mixed beam	!
!	!	!LO:TX:t=P:problem:diminuendolike accent	!
.	(>4g	8e-\L 8B-^\	.
*Xped	*	*	*
8r	.	8G</J)	.
=33	=33	=33	=33
*ped	*	*	*
4AA 4AAA	8r	8ryy	.
!	!	!LO:TX:t=P:problem:diminuendolike accent	!
.	(>4cc	8gL 8e-^	.
*Xped	*	*	*
8r	.	8cJ)	.
*ped	*	*	*
4D 4DD	8r	4.ryy	.
!	!LO:TX:t=P:problem:diminuendolike accent	!	!
.	(<8b-^<L 8f#X	.	.
8r	8aJ 8c)	.	.
*Xped	*	*	*
.	.	.	.
=34	=34	=34	=34
*ped	*	*	*
4BB- 4BBB-	8r	8ryy	.
!	!	!LO:TX:t=P:problem:diminuendolike accent	!
.	(>4dd	8b-L 8g^	.
*Xped	*	*	*
8r	.	8dJ)	.
*ped	*	*	*
4E-/ 4EE-/	8r	8ryy	.
!	!	!LO:TX:t=P:problem:mixed beam	!
!	!	!LO:TX:t=P:problem:diminuendolike accent	!
.	(>4g	8e-\L 8B-^\	.
*Xped	*	*	*
8rBB	.	8G</J)	.
!!LO:LB:g=original
=35	=35	=35	=35
*ped	*	*	*
4.AA/ 4.AAA/	8r	8ryy	.
!	!	!LO:TX:t=P:problem:diminuendolike accent	!
.	(>4cc	8g^L 8e-	.
*Xped	*	*	*
.	.	8f#XJ 8c)	.
8BB-\L 8BBB-\	8r	8ryy	.
!	!	!LO:TX:t=P:problem:mixed beam	!
!	!	!LO:TX:t=P:problem:diminuendolike accent	!
8AA 8AAA	(>4g	8e-\L 8B-^\	.
16rFF	.	8G</J)	.
16GGJk 16GGG	.	.	.
=36	=36	=36	=36
[>4.GG\ [<4.GGG\	8r	8ryy	.
!	!LO:TX:t=P:problem:diminuendolike accent	!	!
.	(>8e- 8c 8A^<L	4ryy	.
.	8E-<J	.	.
8GG\]L 8GGG\]	4d 4c 4A< 4D<)	4.ryy	.
(>8FF#X 8FFF#X	.	.	.
8AAJ 8AAA	8r	.	.
=37	=37	=37	=37
!	!LO:TX:b:t=cres _:problem:dynamics with extention lines 	!	!
!	!	!	!LO:HP:b:i:t=cres
[>4.AA\) [<4.AAA\	8r	8ryy	<
!	!	!LO:TX:t=P:problem:mixed beam	!
!	!	!LO:TX:t=P:problem:diminuendolike accent	!
.	4f#X	8e\- 8c\L^<	.
.	.	8F#<X/J	.
!	!LO:S:s=1:note:problem:note-level slur	!	!
8AA\L] 8AAA\]	4g 4e- 4G<	4.ryy	.
(>8BB- 8BBB-	.	.	.
8GGJ 8GGG	8r	.	.
=38	=38	=38	=38
[>4.AA\) [<4.AAA\	8r	8ryy	.
!	!	!LO:TX:t=P:problem:mixed beam	!
.	(>4f#X	8e-\ 8c\L	.
.	.	8F#X</J	.
!	!LO:S:s=1:note:problem:note-level slur	!	!
8AA\L] 8AAA\]	4g) 4e]- 4G<	4.ryy	.
(>8BB- 8BBB-	.	.	.
8GGJ 8GGG	8r	.	.
=39	=39	=39	=39
!LO:S:s=1:note:problem:note-level slur	!	!	!
[4.AA) [4.AAA	8r	8ryy	.
!	!	!LO:TX:t=P:problem:diminuendolike accent	!
.	(>4ff#X	8ee-L 8cc^<	.
.	.	8f#XJ	.
8AAL] (<8AAA]	4gg\ 4ee-\ 4g\)	4.ryy	.
8BB- 8BBB-	.	.	.
8GGJ 8GGG)	8r	.	.
*	*v	*v	*
=40	=40	=40
*	*8va	*
4CC#X'< 4CCC#	4ggg' 4eee- 4bb- 4gg	.
*	*X8va	*
8r	8r	.
4r	4r	.
8r	8r	.
.	.	[[
=41	=41	=41
*ped	*	*
4.DD 4.DDD	4.dd 4.b- 4.g 4.d	ff
*Xped	*	*
.	.	.
*ped	*	*
4.D\ 4.AA\ 4.DD\	4.f#X 4.d 4.c 4.F#X<	.
*Xped	*	*
=42	=42	=42
8qGGG/	.	.
*ped	*	*
!LO:TX:b:B:t=Fine.	!	!
2.D\;<: 2.GG\:	2.g:;> 2.d: 2.B-<: 2.G<:	.
==	==	==
*-	*-	*-
!!title: @{OTL}; @{OPS} @{ONM} publisher: @{PPR}
!!!RDF**kern: > = above
!!!RDF**kern: < = below
!!!RDF**dynam: < = "cres.",fontstyle = "bold-italic"
!!!RDF**kern: i = editorial accidental
!!!ENC: Jędrzej Mróz
!!!END: 2019-05-23
!!!EED: Marta Lawrence
!!!EST: 2019-06-10
!!!EED2: Emilia Ziętek
!!!EST2: 2020-05-02
!!!rism-genre: Prelude
!!!rism-key: G minor
!!!rism-opus: op.  28, no. 22
!!!rism-title: Prelude in G minor op.  28, no. 22
!!!rism-permalink: https://opac.rism.info/search?id=1001013151&View=rism
!!!rism-773a-OPR: 1001013083
!!!rism-parent-permalink: https://opac.rism.info/search?id=1001013083&View=rism
